!!!OTL: 682. Krambambuli.
!!!COM: Volksweise
!!!ODT: 18. Jahrh. (Mitte)
!!!ARE: Europa, Mitteleuropa, Deutschland
!!!SCT: B0682
!!!TXL: @@DE
!!!YEM: Copyright 1995, estate of Helmut Schaffrath.
**kern	**text
*ICvox	*
*Ivox	*
*clefG2	*
*M2/4	*
*k[]	*
*C:	*
!LO:TX:a:t=Fröhlich.	!
{8g	Krambambu-
=1	=1
4cc	.
8bL	.
8aJ	.
=2	=2
4.g	-li,
8g	das
=3	=3
8aL	iſt
8gJ	.
8aL	der
8bJ	.
=4	=4
8ccL	Ti-
8gJ	.
8g}	-tel
{8g	des
=5	=5
8aL	Tranks
8gJ	.
8fL	der
8eJ	.
=6	=6
8aL	ſich
8gJ	.
8fL	bei
8eJ	.
=7	=7
4d	uns
4g	be-
=8	=8
4g	-währt.
8r}	.
{8g	Er
=9	=9
4cc	iſt
8bL	ein
8aJ	.
=10	=10
4.g	ganʒ
8g	pro-
=11	=11
8aL	-ba-
8gJ	.
8aL	-tes
8bJ	.
=12	=12
8ccL	Mit-
8gJ	.
8g}	-tel,
{8g	wenn
=13	=13
8aL	uns
8gJ	.
8fL	was
8eJ	.
=14	=14
8aL	Bö-
8gJ	.
8fL	-ſes
8eJ	.
=15	=15
4d	wi-
4g	-der-
=16	=16
4g	-fährt.
8r}	.
{8g	Des
=17	=17
8e	A-
8g	-bends
8g	ſpät,
8g	des
=18	=18
8a	Morgens
8g	.
8g}	früh
{8g	trink'
=19	=19
8e	ich
8g	ein
8g	Glas
8g	Krambambuli,
=20	=20
8a	.
8g	.
8g}	.
{8g	Kram-
=21	=21
4cc'	-bim-
4dd'	-bam-
=22	=22
8.ee^	-bam-
16cc	-bu-
8cc	-li,
8cc	Krambam-
=23	=23
4dd	.
4b	-bu-
=24	=24
4cc	-li.
8r}	.
{8g	Des
=25	=25
8e	A-
8g	-bends
8g	ſpät,
8g	des
=26	=26
8a	Morgens
8g	.
8g}	früh
{8g	trink'
=27	=27
8e	ich
8g	ein
8g	Glas
8g	Krambambuli,
=28	=28
8a	.
8g	.
8g}	.
{8g	Kram-
=29	=29
4cc'	-bim-
4dd'	-bam-
=30	=30
8.ee^	-bam-
16cc	-bu-
8cc	-li,
8cc	Krambam-
=31	=31
4dd	.
4b	-bu-
=32	=32
4cc	-li.
8r}	.
==	==
!!!AGN: Scherz - Lied
!!!GTL: Scherzlieder und Gemischtes
!!!ONB: ESAC (Essen Associative Code) Database: BOEHME
!!!AMT: simple duple
!!!AIN: vox
!!!EED: Helmut Schaffrath
!!!EEV: 1.0
!!Volksweiſe vor der Mitte des 18. Jahrh.
!!@@COMMENT:"Das Lied erſchien ʒuerſt als Einʒeldruck mit der Jahrʒahl 1745 unter dem Titel: Der Krambambuliſt. Ein Lobgedicht 
!!über die gebrannten Waſſer im Lachs ʒu Danʒig'. Dann in: "Koromandels Nebenſtündiger Ʒeitvertreib in Teutſchen 
!!Gedichten". Danʒig und Leipʒig 1747 S. 413-436. Die Melodie iſt dieſelbe wie ʒu dem etwas ältern Kanapeliede 
!!und ſteht ſie hier nach der Notation in Erk's Volksliedern II. Heft 6, Nr. 54 (184) woʒu vielſache mündliche 
!!und ſchriftliche Mittheilungen benutʒt ſind. Eine alte Notation fand ſich nicht. Die älteſte ſtebt in A. 
!!Methfeſſels Kommersbuch 1818, iſt aber keine gute, ſondern geänderte Lesart."
!!@@END:
!!!URL-scan: https://archive.org/details/BoehmeVtLieder1895/page/n533/mode/2up
!!!ENC: Anna Maria Matuszewska
!!!EEV: 2024/17/07
*-	*-
